!!!!SEGMENT: pl-wumfc--r282--002-009_paderewski-ignacy-jan--exercises-2-exercise-9.krn
!!!cenid: 18xx:3184
!!!COM: Paderewski, Ignacy Jan
!!!COM-rismID: pe30029943
!!!CDT: 1860/11/18-1941/06/29
!!!CNT: Polish
!!!GTL: [Exercises 2]
!!!OTL: [Exercise] 9
!!!OMV: 009
!!!PDT:
!!!AGN:
!!!SMS-siglum: PL-Wumfc
!!!SMS-shelfmark: R282
!!!SMS-shelfwork: 002-009 G
!!!SMS-variant:
!!!SMS-altvar:
!!!NIFC-rismSourceID: 1001158933
!!!NIFC-islandoraID: pl-wumfc:419
!!!URL-pdf-islandora: https://repozytorium.nifc.pl/islandora/object/pl-wumfc%3A419/datastream/PDF/view
!!!URL-scan: https://polish.musicsources.pl/pl/lokalizacje/galeria/rekopisy/4702 @EN{Scan on Polish Music Herritage in Open Access Website} @PL{Skany w portalu Dziedzictwo Muzyki Polskiej w otwartym dostępie}
!!!ONB-nifc: UWAGA: druga grupa ćwiczeń od skanu 0008
!!!AIN: 2 forte
!!!key:
**kern	**kern
*part2	*part1
*staff2	*staff1
*Iforte	*Iforte
*I"[fortepian]	*I"[fortepian]
*I'pf	*I'pf
*clefF4	*clefG2
*k[]	*k[]
*C:	*C:
*M3/1	*M3/1
*	*^
!	!LO:TX:a:t=C.f.	!
2.GG\	2.g/	4d\
.	.	4c\
.	.	4B\
=1	=1	=1
2.E\	2.g/	4G\
.	.	4F\
.	.	4G\
2.D\	2.f/	4A\
.	.	4F\
.	.	4G\
2.C\	2.e/	4A\
.	.	4B\
.	.	4c\
2.D\	2.d/	4d\
.	.	4B\
.	.	4A\
=2	=2	=2
2.E\	2.g/	4G\
.	.	4g\
.	.	4e\
2.F\	2.a/	4d\
.	.	4e\
.	.	4d\
2.G;\	2.b;/	2.B;\
2.G\	2.b/	4g\
.	.	4f\
.	.	4e\
=3	=3	=3
2.B\	2.b/	4d\
.	.	4e\
.	.	4f\
2.G\	2.b/	4g\
.	.	4B\
.	.	4c\
2.F\	2.a/	4d\
.	.	4e\
.	.	4f\
2.E\	2.g/	4g\
.	.	4e\
.	.	4d\
=4	=4	=4
2.AA\	2.cc/	4c\
.	.	4d\
.	.	4e\
2.BB\	2.b/	4d\
.	.	4e\
.	.	4d\
2.C;\	2.a;/	2.c;\
2.E\	2.g/	4G\
.	.	4A\
.	.	4B\
=5	=5	=5
2.AA\	2.a/	4c\
.	.	4d\
.	.	4c\
2.GG#X\	2.b/	4B\
.	.	4e\
.	.	4d\
2.AA\	2.a/	4c\
.	.	4B\
.	.	4c\
2.BB\	2.g/	4d\
.	.	4e\
.	.	4d\
=6	=6	=6
2.C\	2.e/	4c\
.	.	4B\
.	.	4c\
2.D\	2.f/	4A\
.	.	4d\
.	.	4c\
2.GG;\	2.g;/	2.B;\
2.BB\	2.dd/	4d\
.	.	4e\
.	.	4f\
=7	=7	=7
2.GG\	2.b/	4g\
.	.	4G\
.	.	4A\
2.G\	2.g/	4B\
.	.	4g\
.	.	4e\
2F\	2.a/	4d\
.	.	4e\
4ryy	.	4d\
2E\	2.cc/	4c\
.	.	4d\
4ryy	.	4e\
=8	=8	=8
[2D\	2.b/	4f\
.	.	4B\
4ryy	.	4c\
2D\]	2.a/	4d\
.	.	4e\
4ryy	.	4f\
!	!LO:TX:t=P:problem=niepełna miara w takcie	!
2.GG;\	2.g/	2.g\
4ryy	4ryy	4ryy
2ryy	2ryy	2ryy
*	*v	*v
==	==
*-	*-
!!!system-decoration: [(s1,s2)]
!!!RDF**kern: > = above
!!!RDF**kern: < = below
!!!ENC: Anastazja Marusiak
!!!END: 2021-11-12
!!!ENC: Leszek Kubiak
!!!END: 2021-11-16
